optimized/20/solid/rectangle-group.svg

<svg xmlns="http://www.w3.org/2000/svg" viewBox="0 0 20 20">
  <path fill-rule="evenodd" d="M2.5 3C1.67157 3 1 3.67157 1 4.5V8.5C1 9.32843 1.67157 10 2.5 10H8.5C9.32843 10 10 9.32843 10 8.5V4.5C10 3.67157 9.32843 3 8.5 3H2.5ZM13.5 5C12.6716 5 12 5.67157 12 6.5V13.5C12 14.3284 12.6716 15 13.5 15H17.5C18.3284 15 19 14.3284 19 13.5V6.5C19 5.67157 18.3284 5 17.5 5H13.5ZM3.5 12C2.67157 12 2 12.6716 2 13.5V15.5C2 16.3284 2.67157 17 3.5 17H9.5C10.3284 17 11 16.3284 11 15.5V13.5C11 12.6716 10.3284 12 9.5 12H3.5Z" clip-rule="evenodd"/>
</svg>

<svg xmlns="http://www.w3.org/2000/svg" viewBox="0 0 20 20" fill="currentColor" aria-hidden="true">
  <path fill-rule="evenodd" d="M2.5 3A1.5 1.5 0 001 4.5v4A1.5 1.5 0 002.5 10h6A1.5 1.5 0 0010 8.5v-4A1.5 1.5 0 008.5 3h-6zm11 2A1.5 1.5 0 0012 6.5v7a1.5 1.5 0 001.5 1.5h4a1.5 1.5 0 001.5-1.5v-7A1.5 1.5 0 0017.5 5h-4zm-10 7A1.5 1.5 0 002 13.5v2A1.5 1.5 0 003.5 17h6a1.5 1.5 0 001.5-1.5v-2A1.5 1.5 0 009.5 12h-6z" clip-rule="evenodd"/>
</svg>
